X:1
T:Though My Carriage Be But Careless
T:Though My Carriage Be But Careless
T:Thomas Weelkes
T:1608
T:1608
C:Thomas Weelkes
Z:1608
%%score [ 1 2 3 ]
L:1/8
Q:1/4=60
M:4/4
K:C
V:1 treble nm="Soprano" snm="S."
V:2 treble nm="Alto" snm="A."
V:3 bass nm="Bass" snm="B."
V:1
"^\n"!mf! z2 z2 A3 A | B2 d2 c2 c2 | B2 B2 B3"_cresc." B | c2 c2 d2 d2 | e2 e2 e3 B | c2 A2 d2 c2 | %6
w: 1.Though my|car- raige be but|care- less, Though my|looks be of the|stren- est, Yet my|pas- sions are com-|
w: 2.No: my|wits are not so|wild, * But a|gen- tle soul may|yoke me, Nor my|heart so hard com-|
 B4 B4 | z2!p! BA ^G4 |: z2!mf! ed ^c4 |[M:2/4] z2 d=c |[M:4/4] B4 z2 A2 |!<(! e8- | e8-!<)! | %13
w: pare- less,|When I love,|when I love,|when I|love, I|love||
w: piled, *|But it melts,|but it melts,|but it|melts, if|love||
 e2 c2 B4 |1 ^c8 :|2 !fermata!^c8 |] z8 |] %17
w: * in ear-|nest.
|nest.||
w: * pro- voke|me.|me.||
V:2
!mf! z2 z2 E3 ^F | ^G2 B2 E3 ^F | ^G2 G2 G3"_cresc." G | A2 c2 c2 B2 | c2 c2 B2 ^G2 | A2 c2 B2 A2 | %6
w: 1.Though my|car- raige be but|care- less, Though my|looks be of the|stern- est, Yet my|pas- sions are com-|
w: 2.No: my|wits are not so|wild, * But a|gen- tle soul may|yoke me, Nor my|heart so hard com-|
 ^G4- G2!p! BA | ^G4 z2 ED |: ^C4 z2!mf! AG |[M:2/4] ^F2 BA |[M:4/4] ^G2 =G^F E2 F2 | A2 A2 E3 ^F | %12
w: pare- less, When I|love, when I|love, when I|love, when I|love, when I love, I|love, I love, I|
w: piled, * But it|melts, but it|melts, but it|melts, but it|melts, but it melts, if|love, if love, if|
 ^G3 A B2 c2 | B2 A4 !>!^G2 |1 A4 z2 ED :|2 !fermata!A8 |] z8 |] %17
w: love, I love, I|love in ear-|nest. when I|nest.||
w: love, if love, if|love pro- voke|me. But it|me.||
V:3
!mf! z2 z2 A,,3 A,, | E,2 B,,2 C,2 A,,2 | E,2 E,2 E,3"_cresc." E, | A,2 A,2 G,2 G,2 | %4
w: 1.Though my|car- raige be but|care- less, Though my|looks be of the|
w: 2.No: my|wits are not so|wild, * But a|gen- tle soul may|
 C,2 C,2 E,2 E,2 | A,3 A, ^G,2 A,2 |"_dim." E,8- | E,8 |: A,4 A,,4 |[M:2/4] D,4 | %10
w: stern- est, Yet my|pas- sions are com-|pare-|less,|When I|love,|
w: yoke me, Nor my|heart so hard com-|piled-||But it|melts,|
[M:4/4] z2 E,D, ^C,2 D,2 | A,,3 B,, =C,3 D, | E,3 ^F, ^G,2 A,2 | E,8 |1 A,,8 :|2 !fermata!A,,8 |] %16
w: when I love, I|love, I love, I|love, I love, in|ear-|nest.|nest.|
w: but it melts, if|love, if love, if|love, if love pro-|voke|me.|me.|
 z8 |] %17
w: |
w: |

